X: 10061
T: PRAY GOODY
O: From the Opera of "Midas."
Q: "Moderate."
%R: air, march
B: W. Hamilton "Universal Tune-Book" Vol. 1 Glasgow 1844 p.6 #1
S: http://imslp.org/wiki/Hamilton's_Universal_Tune-Book_(Various)
Z: 2016 John Chambers <jc:trillian.mit.edu>
M: C
L: 1/8
K: G
% - - - - - - - - - - - - - - - - - - - - - - - - -
[|\
d4 cBAG | BAGF GBdf |\
g2fe dBAG | gdcB {B}A4 |\
d4 cBAG | BAGF GBdf |\
g2fe dBec | BdcA G4 |\
g2d2 {f}e2d2 | gBBB {d}c2B2 |
gddd gddd | gdcB HB2HA2 |\
d4 cBAG | BAGF GBdf |\
g2fe dBAG | gdcB {B}A4 |\
d4 {d}cB{B}AG | BAGF GBdf |\
Hg2fe dBec | BdHcHF G4 |]
% - - - - - - - - - - - - - - - - - - - - - - - - -

%%sep 1 1 500
%%sep 1 1 500

